X: 41241
T: True Logic
R: jig
M: 6/8
K: Dmajor
|:A2 B AFE|DEF AdB|A2 B AFA|dfd edB|
A2 B AFE|DEF AB/c/d|edf edB|1 efd edB:|2 gfe fed||
|:efe ede|fab afd|efe edB|AB/c/d AB/c/d|
efe ede|fab afd|gfe fed|1 edB AB/c/d:|2 edB AdB||

